X: 12954
T: Fiddler's Key, The
R: reel
M: 4/4
K: Gminor
G2 BG DGBG|DGBd cBGA|B3 B gfdc|decd BGGF|
G2 BG DGBG|DGBd cBGA|B3 B gfdc|1 decd BGGF:|2 decd Bd G2||
|:g4 g3 a|fada fadB|c ~F3 cFAc|dBcd Bd G2|
g4 g3 a|fadf a2 fd|c ~F3 cFAc|1 dBcd Bd G2:|2 dBcd BGGF||

